X:205
T:score281
L:1/4
Q:1/4=120
M:4/4
I:linebreak $
K:C
 z2!p!"_dol." c2 |!<(! (.a2 .a2!<)! |!>(! .a2 .a2)!>)! | g4 | e2 g2 | g2 (.f .e) | f2 g2 | e4- | %8
 e z c2 |"_cresc." (.a2 .a2"_poco a poco" | .c'2 .a2) | g4 | e2 g'2 | g'2 (.f' .e') | f'4- | f'4 | %16
